!!!COM: Scriabin, Alexander
!!!OTL@@FR: Étude
!!!OTL@@EN: Etude
!!!OPR@@FR: 3 Morceaux
!!!OPR@@EN: 3 Pieces
!!!OPS: 2
!!!ONM: 1
!!!ODT: 1886
!!!AGN: Etude
!!!OMD: Andante.
**kern	**kern	**dynam
*part1	*part1	*part1
*staff2	*staff1	*staff1/2
*Ipiano	*Ipiano	*Ipiano
*clefF4	*clefG2	*
*k[f#c#g#d#]	*k[f#c#g#d#]	*
*kcancel	*kcancel	*
*c#:	*c#:	*
*M3/4	*M3/4	*
*MM92	*MM92	*
=1-	=1-	=1-
*	*^	*
8CC#: 8GG#: 8G#:L	8E 8c#L	8r	p <
8GG# 8G#	8E 8d#	4E	.
8GG# 8G#	8c# 8e	.	.
[>8GG# 8G#	8c# 8f#	4c#	.
8CC# 8GG#]	8e 8g#	.	.
8GG# 8G#J	8c# 8e 8cc#J	8ryy	[
=2	=2	=2	=2
8CC#: 8FF#: 8C#: 8F#:L>	8.bL	8B 8c# 8f#L	>
8C# 8F# 8c#	.	8B 8f#	.
.	16aJk	.	.
8C# 8F# 8c#	2a	8A 8f#	]
8C# 8F# 8c#	.	8A 8f#	.
8C# 8F# 8c#	.	8A 8f#	.
8C# 8F# 8c#J	.	8A 8f#J	.
=3	=3	=3	=3
*^	*	*	*
8AA 8AL	8C#	8F# 8c# 8f#L	8ryy	<
8GG# 8G#	4C#	8A 8g#	4c#	.
8FF# 8F#	.	8f# 8a	.	.
8EE 8E	4AA	8c# 8b	4c#	.
8DD# 8D#	.	8f# 8cc#	.	.
8D# 8A 8c#J	8ryy	8f# 8cc# 8ff#J	8ryy	[
*v	*v	*	*	*
=4	=4	=4	=4
8GG#: 8F#: 8c#:L	8.e 8.eeL	8aL	>
8F# 8c#	.	8a	.
.	16d# 16dd#Jk	.	.
8F# 8c#	2d# 2dd#	8a	]
8F# 8c#	.	8a	.
8F# 8B#	.	8g#	.
8F# 8B#J	.	8g#J	.
!!LO:LB:g=original
=5	=5	=5	=5
*^	*	*	*
8c#L	2.C#	8e 8g# 8cc#L	8ryy	<
8BnJ	.	8e 8dd#	4g#	.
8A#	.	8cc# 8ee	.	.
4g#	.	8ff#	4cc#	.
.	.	8ee 8gg#	.	.
8e	.	8cc# 8gg# 8ccc#J	8ryy	.
=6	=6	=6	=6	=6
8eL	2D# 2G#	8.bbL	8b 8gg#L	.
8d#	.	.	8g# 8b	.
.	.	16gg#Jk	.	.
8c##	.	4gg#	8g# 8b	.
8d#	.	.	8g# 8b	.
8d#	4C#	4ee	8e 8g#	.
8G#J	.	.	8e 8g#J	.
=7	=7	=7	=7	=7
8A#L	2BB	8.dd#L	8d# 8g#L	.
8B	.	.	8g#	.
.	.	16bJk	.	.
8e	.	4b	8g#	.
8d#	.	.	8g#	.
8B	4C#	4dd#	8e 8f## 8cc#	.
8A#J	.	.	8e 8f## 8cc#J	.
=8	=8	=8	=8	=8
8D# 8G#L	4GG#	8.bL	8B 8d#L	.
8D# 8G#J	.	.	8B 8d#	.
.	.	16g#Jk	.	.
8C##	2GG#	2g#	8F# 8B#	p
4E	.	.	8F# 8B#	.
.	.	.	8F# 8B#	.
8D#	.	.	8F# 8B#J	.
=9	=9	=9	=9	=9
8CC# 8C#L	4.ryy	8E 8G# 8c#L	8ryy	.
8BBB 8BBJ	.	8E 8d#	4G#	.
8AAA# 8AA#	.	8c# 8e	.	.
4AA#	4.ryy	8G# 8f#	4c#	.
.	.	8e 8g#	.	<
8c#/	.	8cc#J	8ryy	.
!!LO:LB:g=original
=10	=10	=10	=10	=10
8.BL	8D#L	8.bL	8c# 8e 8g#L	.
.	8D#J	.	8c# 8e 8g#	.
16A#Jk	.	16a#Jk	.	.
*	*^	*	*	*
8A#	8D#	2A#\	2a#	8c# 8e 8g#	.
4e	4D#	.	.	8c# 8f##	.
.	.	.	.	8c# 8f##	.
8d#	8D#	.	.	8c# 8f##J	.
*	*v	*v	*	*	*
=11	=11	=11	=11	=11
8GG# 8G#L	4.ryy	8B 8d# 8g#L	8ryy	.
8FF# 8F#J	.	8B 8a#	4d#	.
8EE# 8E#	.	8g# 8b	.	.
4E#	4.ryy	8d# 8cc#	4g#	.
.	.	8b 8dd#	.	.
8g#/	.	8gg#J	8ryy	.
=12	=12	=12	=12	=12
8.f#L	8A#L	8.ff#L	8g# 8b 8dd#L	.
.	8A#J	.	8g# 8b 8dd#	.
16e#Jk	.	16ee#Jk	.	.
*	*^	*	*	*
8e#	8A#	2e#	2ee#	8g# 8b 8dd#	.
4b	4A#	.	.	8g# 8cc##	.
.	.	.	.	8g# 8cc##	.
8a#	8A#	.	.	8g# 8cc##J	.
*	*v	*v	*	*	*
*	*	*v	*v	*
=13||	=13||	=13||	=13||
*k[b-e-a-d-g-]	*k[b-e-a-d-g-]	*k[b-e-a-d-g-]	*
*	*	*^	*
8e-L	2.E-	8g- 8b- 8ee-L	8ryy	f
8d-J	.	8g- 8ff	4b-	.
8c	.	8ee- 8gg-	.	.
4b-	.	8aa-	4ee-	.
.	.	8gg- 8bb-	.	.
8g-	.	8ee- 8bb- 8eee-J	8ryy	.
=14	=14	=14	=14	=14
8g-L	2F 2B-	8.ddd-L	8dd- 8bb-L	.
8f	.	.	8b- 8dd-	.
.	.	16bb-Jk	.	.
8en	.	4bb-	8b- 8dd-	.
8f	.	.	8b- 8dd-	.
8f	4E-	4gg-	8g- 8b-	.
8B-J	.	.	8g- 8b-J	.
!!LO:LB:g=original
=15	=15	=15	=15	=15
8cL	2D-	8.ffL	8f 8b-L	.
8d-	.	.	8b-	.
.	.	16dd-Jk	.	.
8g-	.	4dd-	8b-	.
8f	.	.	8b-	.
8d-	4E-	4ff	8g- 8an 8ee-	.
8cJ	.	.	8g- 8a 8ee-J	.
=16	=16	=16	=16	=16
8F 8B-L	[4BB-	8.dd-L	8d- 8fL	.
8F 8B-J	.	.	8d- 8f	.
.	.	16b-Jk	.	.
8F 8B-	8BB-]	8b-	8d- 8f	>
(<8F'<	8rCC	8rff	(>8f'>	.
8F'<L	4rCC	4rff	8f'>	.
8F'<J)	.	.	8f'>J)	.
*	*	*v	*v	*
=17||	=17||	=17||	=17||
*k[b-e-a-]	*k[b-e-a-]	*k[b-e-a-]	*
8FL	2.BB-	8d 8a- 8b-L	pp
8F	.	8e- 8a- 8cc	.
.	.	(8ddq	.
8F	.	8e- 8a- 8cc)	.
8F	.	8e- 8a- 8bn	.
8F	.	8e- 8a- 8cc	.
8FJ	.	8e- 8a- 8cc 8ffJ	.
=18	=18	=18	=18
*	*	*^	*
8FL	2.BB-	8.ccL	8e- 8a-L	.
8F	.	.	8e- 8a-	.
.	.	16b-Jk	.	.
8F	.	2b-	8d 8a-	.
8F	.	.	8d 8a-	.
8F	.	.	8d 8a-	.
8FJ	.	.	8d 8a-J	.
=19	=19	=19	=19	=19
8FL	2.BB-	8b-L	8d 8a-L	ppp
8F	.	8cc	8e- 8a-	.
.	.	(<8ddq	.	.
8F	.	8cc)	8e- 8a-	.
8F	.	8bnJ	8e- 8a-	.
8F	.	12ccL	8e- 8a-	.
.	.	12gg	.	.
8FJ	.	.	8e- 8a- 8ccJ	.
.	.	12ffJ	.	.
!!LO:LB:g=original
=20	=20	=20	=20	=20
8FL	2.BB-	8.ffL	8e- 8a- 8ccL	.
8F	.	.	8e- 8a- 8cc	.
.	.	16b-Jk	.	.
8F	.	2b-	8d 8a-	.
8F	.	.	8d 8a-	.
8F	.	.	8d 8a-	.
8FJ	.	.	8d 8a-J	.
=21	=21	=21	=21	=21
8GL	2E-	2ee-	8d- 8b-L	mf
8G	.	.	8d- 8cc	.
.	.	.	(8dd-q\	.
8G	.	.	8d- 8cc)	.
8G	.	.	8d- 8b-	.
8G-	4AA-	4ee-	8d- 8b--	.
8G-J	.	.	8c 8a-J	.
=22	=22	=22	=22	=22
8FL	2D-	4ee--	8c- 8a-L	.
8F	.	.	8c- 8b--	.
.	.	.	(8cc-q\	.
8F	.	4dd-	8c-) 8b--	.
8F	.	.	8c- 8a-	.
8D- 8F	4GG-	4dd-	8c- 8a-	.
8D- 8G-J	.	.	8B-X 8g-J	.
*v	*v	*	*	*
*	*v	*v	*
=23	=23	=23
8AA-L	8G- 8c 8fL	.
8AA-	8G- 8c 8e-	.
.	(8fq	.
8AA-	8G- 8c 8e-)	.
8AA-	8G- 8cn 8d	.
8BB--	8G- 8c 8d	.
8BB--J	8G- 8c 8e-J	.
=24	=24	=24
8AA-L	8G- 8c 8fL	.
8AA-	8G- 8c 8e-	.
.	(8fq	.
8AA-	8G- 8c 8e-)	.
8AA-	8G- 8c 8dn	.
8BB--	8G- 8c 8d	.
8BB--J	8G- 8c 8e-J	.
!!LO:LB:g=original
=25||	=25||	=25||
*k[f#c#g#d#]	*k[f#c#g#d#]	*
*^	*	*
2A	8GG#L	8F# 8B# 8eL	.
.	8GG#	8F# 8B# 8d#	.
.	.	(8eq	.
.	8GG#	8F# 8B# 8d#)	.
.	8GG#	8F# 8B# 8c##	.
4G#	8GG#	8F# 8B# 8d#	.
.	8GG#J	8F# 8B# 8eJ	.
*v	*v	*	*
=26	=26	=26
*	*^	*
8CC#: 8GG#: 8G#:L	8E 8c#L	8ryy	f
8GG# 8G#	8E 8d#	4E	.
8GG# 8G#	8c# 8e	.	.
8GG# 8G#	8c# 8f#	4c#	<
8CC# [8GG#	8e 8g#	.	.
8GG#] 8G#J	8c# 8e 8cc#J	8ryy	[
=27	=27	=27	=27
8CC#: 8FF#: 8C#: 8F#:L>	8.bL	8B 8c# 8f#L	>
8C# 8F# 8c#	.	8B 8f#	.
.	16aJk	.	]
8C# 8F# 8c#	2a	8A 8f#	.
8C# 8F# 8c#	.	8A 8f#	.
8C# 8F# 8c#	.	8A 8f#	.
8C# 8F# 8c#J	.	8A 8f#J	.
=28	=28	=28	=28
*^	*	*	*
8AA 8AL	8C#	8F# 8c# 8f#L	8ryy	.
8GG# 8G#	4C#	8A 8g#	4c#	<
8FF# 8F#	.	8f# 8a	.	.
8EE 8E	4AA	8c# 8b	4c#	.
8DD# 8D#	.	8f# 8cc#	.	.
8D# 8A 8c#J	8ryy	8f# 8cc# 8ff#J	8ryy	[
*v	*v	*	*	*
=29	=29	=29	=29
8GG#: 8F#: 8c#:L>	8.e 8.eeL	8aL	>
8F# 8c#	.	8a	.
.	16d# 16dd#Jk	.	]
8F# 8c#	2d# 2dd#	8a	.
8F# 8c#	.	8a	.
8GG# 8F# 8B#	.	8g#	.
8F# 8B#J	.	8g#J	.
!!LO:LB:g=original
=30	=30	=30	=30
*^	*	*	*
16c#LL	2.C#	8e 8g# 8cc#L	8ryy	mf
16G#	.	.	.	.
16c#	.	8e 8dd#	4g#	.
16BJJ	.	.	.	.
8.A#	.	8cc# 8ee	.	.
.	.	8cc# 8ff#	4cc#	.
16g#	.	.	.	.
8g#L	.	8ee 8gg#	.	.
16f#L	.	8cc# 8gg# 8ccc#J	8ryy	.
16eJJ	.	.	.	.
=31	=31	=31	=31	=31
16eLL	2D# 2G#	8.bbL	8b 8gg#L	.
16d#	.	.	.	.
16d#	.	.	8g# 8bJ	.
16c##JJ	.	16gg#Jk	.	.
16c##LL	.	4gg#	8g# 8bL	.
16d#	.	.	.	.
16d#	.	.	8g# 8bJ	.
16eJJ	.	.	.	.
16d#LL	4C#	4ee	8e 8g#L	.
16G#	.	.	.	.
16G#	.	.	8e 8g#J	.
16A#JJ	.	.	.	.
=32	=32	=32	=32	=32
16A#LL	2BB	8.dd#L	8d# 8g#L	.
16B	.	.	.	.
16B	.	.	8g#	.
16eJJ	.	16bJk	.	.
16eLL	.	4b	8g#	.
16d#	.	.	.	.
16d#	.	.	8g#	.
16BJJ	.	.	.	.
16BLL	4C#	4dd#	8e 8f## 8cc#	.
16A#	.	.	.	.
16A#	.	.	8e 8f## 8cc#J	.
16G#JJ	.	.	.	.
*v	*v	*	*	*
=33	=33	=33	=33
4.GG# 4.D# 4.G#	8.bL	8B 8d#L	.
.	.	8B 8d#J	.
.	16g#Jk	.	.
.	8g#	8B 8d#	.
(8D#'	8rff	(>8d#'>	.
8D#'L	4rff	8d#'>L	.
8D#'J)	.	8d#'>J)	.
!!LO:LB:g=original
=34	=34	=34	=34
*^	*	*	*
8D#L	2.GG#	8g#L	8B# 8f#L	pp
8D#	.	8a	8c# 8f#	.
.	.	(<8bq	.	.
8D#	.	8a)	8c# 8f#	.
8D#	.	8g#	8c# 8f#	.
8D#	.	8a	8c# 8f#	.
8D#J	.	8a 8dd#J	8c# 8f#J	.
=35	=35	=35	=35	=35
8D#L	2.GG#	8.aL	8c# 8f#L	.
8D#	.	.	8c# 8f#	.
.	.	16g#Jk	.	.
8D#	.	2g#	8B# 8f#	.
8D#	.	.	8B# 8f#	.
8D#	.	.	8B# 8f#	.
8D#J	.	.	8B# 8f#J	.
=36	=36	=36	=36	=36
8D#L	2.GG#	8g#L	8B# 8f#L	ppp
8D#	.	8a	8c# 8f#	.
.	.	(<8bq	.	.
8D#	.	8a)	8c# 8f#	.
8D#	.	8g#J	8c# 8f#	.
8D#	.	12aL	8c# 8f#	.
.	.	12ee	.	.
8D#J	.	.	8c# 8f# 8aJ	.
.	.	12dd#J	.	.
=37	=37	=37	=37	=37
8D#L	2.GG#	8.dd#L	8c# 8f# 8aL	.
8D#	.	.	8c# 8f#	.
.	.	16g#Jk	.	.
8D#	.	2g#	8B# 8f#	.
8D#	.	.	8B# 8f#	.
8D#	.	.	8B# 8f#	.
8D#J	.	.	8B# 8f#J	.
*	*	*v	*v	*
=38	=38	=38	=38
8C#L	2BB	8c# 8e 8g#L	pp
8C#	.	8c# 8e 8a	.
.	.	(8bq	.
8C#	.	8c# 8e 8a)	.
8C#	.	8c# 8e 8g#	.
8C#	4AA	8c# 8g# 8cc#	.
8C#J	.	8F# 8c# 8f#J	.
=39	=39	=39	=39
8C#L	2GG#	8A 8c# 8eL	.
8C#	.	8A 8c# 8f#	.
.	.	(8g#q	.
8C#	.	8A 8c# 8f#)	.
8C#	.	8A 8c# 8e	.
8C#	4FF#	8A 8c# 8a	.
8C#J	.	8A 8c# 8d#J	.
!!LO:LB:g=original
=40	=40	=40	=40
8C#L	2FF#	8A 8B# 8d#L	>
8C#	.	8A 8B# 8e	.
.	.	(8f#q	.
8C#	.	8A 8B# 8e)	.
8C#	.	8A 8B# 8d#	.
8C#	4EE	8G# 8c# 8g#	.
8C#J	.	8G# 8c#J	.
=41	=41	=41	=41
*	*	*^	*
8C#L	2FF#	8.eL	8A 8c#L	.
8C#	.	.	8A 8c#	.
.	.	16d#Jk	.	.
8C#	.	4d#	8c#	.
8C#	.	.	8A 8c#	.
8C#	4FF##	4e	8A 8c#	.
8C#J	.	.	8A 8c#J	.
=42	=42	=42	=42	=42
2ryy	8CC# 8GG# 8C#L	8E 8G# 8c#L	8ryy	ppp
.	8C#	8G# 8d#	4E	.
.	8C#	8c# 8e	.	.
.	8C#	8c# 8f#	4c#	.
4G#	8C#	8e 8g#	.	.
.	8C#J	8c# 8e 8cc#J	8ryy	.
=43	=43	=43	=43	=43
4F##	8C#L	8.bL	2c# 2e	.
.	8C#	.	.	.
.	.	16aJk	.	.
4G#	8C#	4g#	.	.
.	8C#	.	.	.
4A	8C#	4f#X	4c#	.
.	8C#J	.	.	.
=44	=44	=44	=44	=44
8C#L	4C#	8.eL	4G# 4c#	.
8C#	.	.	.	.
.	.	16c#Jk	.	.
8C#	4BB	4G# 4c#	2ryy	.
8C#	.	.	.	.
8C#	4AA	4F# 4c# 4f#	.	.
8C#J	.	.	.	.
*v	*v	*	*	*
=45	=45	=45	=45
2.CC#;< 2.GG#;< 2.C#;<	8eL	2.E; 2.G#;	.
.	8c#J	.	.
.	2c#;	.	.
*	*v	*v	*
==	==	==
*-	*-	*-
!!!system-decoration: {(*)}
!!!RDF**kern: > = above
!!!RDF**kern: < = below
!!!RDF**dynam: > = dim.
!!!PPP: Moscow: P. Jurgenson, n.d.[1894]. Plate 18904, 19261a and b.
!!!URL-pdf: https://s9.imslp.org/files/imglnks/usimg/8/8e/IMSLP423301-PMLP07373-Op._2_-_Etude_in_C-sharp_minor_(1894_Jurgenson,_FE).pdf First edition
!!!ENC: Craig Stuart Sapp
!!!END: 2004/12/07
!!!EED: Craig Stuart Sapp
!!!EEV: 2023/02/18
